public/icon_submit.svg

<svg fill="none" height="56" viewBox="0 0 56 56" width="56" xmlns="http://www.w3.org/2000/svg" xmlns:xlink="http://www.w3.org/1999/xlink"><radialGradient id="a" cx="0" cy="0" gradientTransform="matrix(49.2421621 -38.46098394 37.31587615 47.77606379 3 47.4609)" gradientUnits="userSpaceOnUse" r="1"><stop offset="0" stop-color="#5bcaff"/><stop offset="1" stop-color="#06f"/></radialGradient><path d="m10.0781 47.4609h35.7188c4.0781 0 6.4453-2.3671 6.4453-6.9843v-24.4922c0-4.6172-2.3906-6.9844-7.0781-6.9844h-35.71879c-4.07812 0-6.44531 2.3438-6.44531 6.9844v24.4922c0 4.6172 2.39062 6.9843 7.0781 6.9843zm14.9531-18.2343-16.54682-16.336c.44531-.164.9375-.2344 1.52342-.2344h35.25c.586 0 1.1016.0938 1.5469.2579l-16.5235 16.3125c-.9374.9375-1.7578 1.3359-2.625 1.3359-.8671 0-1.6874-.4219-2.625-1.3359zm-18.37495 11.1796v-24.4921l12.49215 12.3047-12.49215 12.375c0-.1876 0-.1876 0-.1876zm41.95315.1172-12.4453-12.3046 12.4453-12.2344zm-38.6016 3.2813c-.56249 0-1.05468-.0703-1.47655-.2344l13.07815-12.9375 1.3594 1.336c1.5703 1.5703 3.0937 2.2031 4.6874 2.2031 1.5938 0 3.1172-.6328 4.6876-2.2031l1.3593-1.336 13.0547 12.9141c-.4219.164-.9375.2578-1.5.2578z" fill="url(#a)"/></svg>

<svg width="56" height="56" viewBox="0 0 56 56" fill="none" xmlns="http://www.w3.org/2000/svg">
<path d="M10.0781 47.4609H45.7969C49.875 47.4609 52.2422 45.0938 52.2422 40.4766V15.9844C52.2422 11.3672 49.8516 9 45.1641 9H9.44531C5.36719 9 3 11.3438 3 15.9844V40.4766C3 45.0938 5.39062 47.4609 10.0781 47.4609ZM25.0312 29.2266L8.48438 12.8906C8.92969 12.7266 9.42188 12.6562 10.0078 12.6562H45.2578C45.8438 12.6562 46.3594 12.75 46.8047 12.9141L30.2812 29.2266C29.3438 30.1641 28.5234 30.5625 27.6562 30.5625C26.7891 30.5625 25.9688 30.1406 25.0312 29.2266ZM6.65625 40.4062V15.9141L19.1484 28.2188L6.65625 40.5938C6.65625 40.4062 6.65625 40.4062 6.65625 40.4062ZM48.6094 40.5234L36.1641 28.2188L48.6094 15.9844V40.5234ZM10.0078 43.8047C9.44531 43.8047 8.95312 43.7344 8.53125 43.5703L21.6094 30.6328L22.9688 31.9688C24.5391 33.5391 26.0625 34.1719 27.6562 34.1719C29.25 34.1719 30.7734 33.5391 32.3438 31.9688L33.7031 30.6328L46.7578 43.5469C46.3359 43.7109 45.8203 43.8047 45.2578 43.8047H10.0078Z" fill="url(#paint0_radial)"/>
<defs>
<radialGradient id="paint0_radial" cx="0" cy="0" r="1" gradientUnits="userSpaceOnUse" gradientTransform="translate(3 47.4609) rotate(-37.9919) scale(62.4823 60.622)">
<stop stop-color="#5BCAFF"/>
<stop offset="1" stop-color="#0066FF"/>
</radialGradient>
</defs>
</svg>
